web/packages/design/src/ResourceIcon/assets/googlecalendar.svg

<svg width="72" height="72" viewBox="0 0 72 72" fill="none" xmlns="http://www.w3.org/2000/svg">
<g clip-path="url(#clip0_8803_4391)">
<path d="M54.9479 17.0524L37.8954 15.1577L17.0532 17.0524L15.1582 35.9999L17.0529 54.9474L36.0004 57.3159L54.9479 54.9474L56.8426 35.5265L54.9479 17.0524Z" fill="white"/>
<path d="M24.8258 46.4494C23.4095 45.4925 22.4289 44.0953 21.8936 42.2478L25.1811 40.8931C25.4795 42.03 26.0004 42.9109 26.7442 43.5362C27.4833 44.1616 28.3833 44.4694 29.4348 44.4694C30.5102 44.4694 31.4339 44.1425 32.2058 43.4887C32.9776 42.835 33.3664 42.0012 33.3664 40.9925C33.3664 39.96 32.9589 39.1165 32.1442 38.4631C31.3295 37.8097 30.3064 37.4825 29.0842 37.4825H27.1848V34.2285H28.8898C29.9414 34.2285 30.8273 33.9444 31.5473 33.376C32.2673 32.8075 32.6273 32.0306 32.6273 31.0406C32.6273 30.1597 32.3051 29.4585 31.6611 28.9329C31.017 28.4073 30.202 28.1419 29.212 28.1419C28.2458 28.1419 27.4782 28.3979 26.9098 28.9141C26.3414 29.4304 25.9292 30.0651 25.6689 30.8135L22.4148 29.4588C22.8458 28.2366 23.637 27.1566 24.7973 26.2235C25.958 25.2904 27.4404 24.8213 29.2404 24.8213C30.5714 24.8213 31.7698 25.0773 32.8311 25.5935C33.892 26.1097 34.7258 26.8251 35.3273 27.7344C35.9289 28.6485 36.2273 29.6719 36.2273 30.8085C36.2273 31.9691 35.948 32.9494 35.3889 33.7547C34.8298 34.56 34.1429 35.1756 33.3282 35.6069V35.8009C34.4036 36.2509 35.2798 36.9378 35.9714 37.8616C36.6582 38.7853 37.0038 39.8891 37.0038 41.1775C37.0038 42.466 36.677 43.6169 36.0232 44.626C35.3694 45.635 34.4648 46.4307 33.3185 47.0085C32.1676 47.5863 30.8745 47.88 29.4392 47.88C27.7767 47.8847 26.242 47.4063 24.8258 46.4494Z" fill="#1A73E8"/>
<path d="M44.9998 30.1358L41.4092 32.7458L39.6045 30.008L46.0798 25.3374H48.562V47.3683H44.9998V30.1358Z" fill="#1A73E8"/>
<path d="M54.9476 72L72 54.9476L63.4738 51.1582L54.9476 54.9476L51.1582 63.4738L54.9476 72Z" fill="#EA4335"/>
<path d="M13.2627 63.474L17.0521 72.0002H54.9467V54.9478H17.0521L13.2627 63.474Z" fill="#34A853"/>
<path d="M5.68404 0C2.54376 0 0 2.54376 0 5.68404V54.9472L8.52624 58.7365L17.0525 54.9472V17.0525H54.9472L58.7365 8.52624L54.9475 0H5.68404Z" fill="#4285F4"/>
<path d="M0 54.9478V66.3162C0 69.4568 2.54376 72.0002 5.68404 72.0002H17.0525V54.9478H0Z" fill="#188038"/>
<path d="M54.9473 17.0525V54.9472H71.9997V17.0525L63.4735 13.2632L54.9473 17.0525Z" fill="#FBBC04"/>
<path d="M71.9997 17.0525V5.68404C71.9997 2.5434 69.456 0 66.3157 0H54.9473V17.0525H71.9997Z" fill="#1967D2"/>
</g>
<defs>
<clipPath id="clip0_8803_4391">
<rect width="72" height="72" fill="white"/>
</clipPath>
</defs>
</svg>

<svg xmlns="http://www.w3.org/2000/svg" width="72" height="72" fill="none" viewBox="0 0 72 72"><g clip-path="url(#a)"><path fill="#fff" d="m54.948 17.052-17.053-1.894-20.842 1.894L15.158 36l1.895 18.947L36 57.316l18.948-2.369 1.895-19.42z"/><path fill="#1a73e8" d="M24.826 46.45c-1.416-.958-2.397-2.355-2.932-4.202l3.287-1.355q.448 1.705 1.563 2.643c.74.626 1.64.933 2.69.933q1.614 0 2.772-.98 1.159-.982 1.16-2.496 0-1.55-1.222-2.53c-.814-.653-1.838-.98-3.06-.98h-1.9v-3.254h1.706q1.577 0 2.657-.853 1.08-.852 1.08-2.335 0-1.32-.966-2.108-.965-.79-2.449-.791-1.45-.001-2.302.772a4.5 4.5 0 0 0-1.241 1.9l-3.254-1.355q.644-1.834 2.382-3.235 1.742-1.402 4.443-1.403 1.998-.001 3.591.772 1.593.776 2.496 2.141.901 1.37.9 3.074 0 1.74-.838 2.947a5.8 5.8 0 0 1-2.06 1.852v.194a6.26 6.26 0 0 1 2.642 2.06q1.032 1.385 1.033 3.317t-.98 3.448c-.655 1.009-1.56 1.805-2.706 2.383-1.15.577-2.443.871-3.879.871q-2.491.006-4.613-1.43M45 30.136l-3.59 2.61-1.805-2.738 6.475-4.67h2.482v22.03H45z"/><path fill="#ea4335" d="M54.948 72 72 54.948l-8.526-3.79-8.526 3.79-3.79 8.526z"/><path fill="#34a853" d="M13.263 63.474 17.053 72h37.894V54.948H17.052z"/><path fill="#4285f4" d="M5.684 0A5.683 5.683 0 0 0 0 5.684v49.263l8.526 3.79 8.526-3.79V17.053h37.895l3.79-8.527L54.947 0z"/><path fill="#188038" d="M0 54.948v11.368A5.68 5.68 0 0 0 5.684 72h11.369V54.948z"/><path fill="#fbbc04" d="M54.947 17.053v37.894H72V17.052l-8.526-3.789z"/><path fill="#1967d2" d="M72 17.053V5.683A5.68 5.68 0 0 0 66.316 0H54.947v17.053z"/></g><defs><clipPath id="a"><path fill="#fff" d="M0 0h72v72H0z"/></clipPath></defs></svg>
